public/logos/AE.svg

<?xml version="1.0" encoding="UTF-8"?>
<svg xmlns="http://www.w3.org/2000/svg" xmlns:xlink="http://www.w3.org/1999/xlink" width="176pt" height="26.04pt" viewBox="0 0 176 26.04" version="1.1">
<defs>
<clipPath id="clip1">
  <path d="M 0 0 L 37 0 L 37 26.039062 L 0 26.039062 Z M 0 0 "/>
</clipPath>
</defs>
<g id="surface1">
<g clip-path="url(#clip1)" clip-rule="nonzero">
<path style=" stroke:none;fill-rule:nonzero;fill:rgb(64.649963%,59.234619%,38.696289%);fill-opacity:1;" d="M 20.191406 24.964844 C 19.011719 25.632812 17.753906 25.933594 16.449219 26.011719 C 12.296875 26.261719 8.746094 24.757812 5.582031 22.207031 C 3.355469 20.410156 1.597656 18.242188 0.59375 15.53125 C -0.0703125 13.738281 -0.296875 11.90625 0.542969 10.113281 C 1.929688 7.152344 6.378906 4.359375 10.792969 7.726562 C 11.863281 8.542969 12.796875 9.539062 13.765625 10.425781 C 13.945312 9.910156 13.300781 8.453125 12.414062 7.5 C 11.597656 6.628906 10.5625 6.160156 9.402344 5.914062 C 9.40625 5.835938 9.40625 5.761719 9.410156 5.6875 C 9.78125 5.625 10.148438 5.542969 10.523438 5.503906 C 10.851562 5.472656 11.140625 5.492188 11.457031 5.226562 C 11.695312 5.03125 12.195312 5.054688 12.554688 5.117188 C 13.96875 5.355469 15.15625 6.09375 16.289062 6.925781 C 16.507812 7.089844 16.722656 7.257812 17.015625 7.480469 C 17.101562 6.992188 17.140625 6.546875 17.253906 6.121094 C 18.0625 3.0625 19.851562 0.917969 23.011719 0.148438 C 25.191406 -0.378906 29.007812 0.457031 30.378906 2.882812 C 31.15625 4.261719 31.460938 5.757812 31.597656 7.304688 C 31.734375 8.875 31.707031 10.476562 32.011719 12.011719 C 32.539062 14.675781 34.152344 16.679688 36.347656 18.230469 C 36.515625 18.347656 36.683594 18.453125 36.910156 18.601562 C 36.148438 19.296875 35.28125 19.539062 34.316406 19.449219 C 32.933594 19.3125 31.757812 18.675781 30.6875 17.835938 C 28.199219 15.882812 26.503906 13.398438 25.621094 10.34375 C 25.402344 9.582031 24.996094 8.851562 24.558594 8.179688 C 23.828125 7.054688 22.847656 6.722656 21.550781 7.023438 C 19.550781 7.488281 18.496094 9.265625 19.101562 11.222656 C 19.726562 13.242188 21.015625 14.800781 22.648438 16.09375 C 25.375 18.253906 28.523438 19.539062 31.832031 20.496094 C 31.933594 20.527344 32.035156 20.566406 32.242188 20.640625 C 31.65625 20.855469 31.15625 21.03125 30.664062 21.21875 C 30.148438 21.410156 29.628906 21.601562 29.121094 21.8125 C 27.269531 22.574219 25.425781 23.355469 23.570312 24.097656 C 23.296875 24.203125 22.902344 24.222656 22.640625 24.105469 C 18.78125 22.390625 16.195312 19.453125 14.621094 15.582031 C 14.183594 14.515625 13.632812 13.558594 12.574219 13.019531 C 11.46875 12.453125 10.355469 12.476562 9.355469 13.246094 C 8.402344 13.984375 8.164062 15.03125 8.355469 16.167969 C 8.589844 17.546875 9.355469 18.648438 10.324219 19.605469 C 13.035156 22.296875 16.242188 24.105469 19.992188 24.910156 C 20.058594 24.925781 20.121094 24.945312 20.191406 24.964844 "/>
</g>
<path style=" stroke:none;fill-rule:nonzero;fill:rgb(14.248657%,29.133606%,58.224487%);fill-opacity:1;" d="M 44.648438 13.019531 L 42.789062 6.476562 L 42.734375 6.476562 C 42.820312 7.589844 42.863281 8.457031 42.863281 9.074219 L 42.863281 13.019531 L 40.691406 13.019531 L 40.691406 3.9375 L 43.957031 3.9375 L 45.851562 10.382812 L 45.902344 10.382812 L 47.757812 3.9375 L 51.03125 3.9375 L 51.03125 13.019531 L 48.777344 13.019531 L 48.777344 9.035156 C 48.777344 8.828125 48.78125 8.601562 48.785156 8.347656 C 48.792969 8.09375 48.820312 7.476562 48.871094 6.488281 L 48.816406 6.488281 L 46.984375 13.019531 L 44.648438 13.019531 "/>
<path style=" stroke:none;fill-rule:nonzero;fill:rgb(14.248657%,29.133606%,58.224487%);fill-opacity:1;" d="M 57.605469 9.304688 L 57.214844 7.8125 C 57.121094 7.480469 57.011719 7.054688 56.882812 6.527344 C 56.75 6 56.664062 5.625 56.625 5.394531 C 56.585938 5.609375 56.511719 5.957031 56.402344 6.441406 C 56.292969 6.925781 56.050781 7.878906 55.671875 9.304688 Z M 58.5625 13.019531 L 58.113281 11.316406 L 55.164062 11.316406 L 54.703125 13.019531 L 52.007812 13.019531 L 54.972656 3.898438 L 58.246094 3.898438 L 61.246094 13.019531 L 58.5625 13.019531 "/>
<path style=" stroke:none;fill-rule:nonzero;fill:rgb(14.248657%,29.133606%,58.224487%);fill-opacity:1;" d="M 70.871094 13.019531 L 67.65625 13.019531 L 64.339844 6.621094 L 64.28125 6.621094 C 64.359375 7.625 64.402344 8.394531 64.402344 8.925781 L 64.402344 13.019531 L 62.226562 13.019531 L 62.226562 3.9375 L 65.429688 3.9375 L 68.734375 10.246094 L 68.773438 10.246094 C 68.714844 9.332031 68.6875 8.597656 68.6875 8.042969 L 68.6875 3.9375 L 70.871094 3.9375 L 70.871094 13.019531 "/>
<path style=" stroke:none;fill-rule:nonzero;fill:rgb(14.248657%,29.133606%,58.224487%);fill-opacity:1;" d="M 77.996094 8.371094 C 77.996094 7.539062 77.832031 6.921875 77.503906 6.519531 C 77.175781 6.121094 76.675781 5.917969 76.003906 5.917969 L 75.289062 5.917969 L 75.289062 11.003906 L 75.835938 11.003906 C 76.582031 11.003906 77.128906 10.789062 77.476562 10.355469 C 77.824219 9.925781 77.996094 9.261719 77.996094 8.371094 Z M 80.542969 8.285156 C 80.542969 9.800781 80.128906 10.96875 79.292969 11.789062 C 78.457031 12.609375 77.285156 13.019531 75.773438 13.019531 L 72.835938 13.019531 L 72.835938 3.9375 L 75.980469 3.9375 C 77.4375 3.9375 78.5625 4.308594 79.355469 5.054688 C 80.148438 5.800781 80.542969 6.878906 80.542969 8.285156 "/>
<path style=" stroke:none;fill-rule:nonzero;fill:rgb(14.248657%,29.133606%,58.224487%);fill-opacity:1;" d="M 86.789062 9.304688 L 86.394531 7.8125 C 86.304688 7.480469 86.195312 7.054688 86.0625 6.527344 C 85.933594 6 85.847656 5.625 85.804688 5.394531 C 85.769531 5.609375 85.695312 5.957031 85.585938 6.441406 C 85.476562 6.925781 85.230469 7.878906 84.855469 9.304688 Z M 87.742188 13.019531 L 87.296875 11.316406 L 84.347656 11.316406 L 83.886719 13.019531 L 81.191406 13.019531 L 84.152344 3.898438 L 87.425781 3.898438 L 90.425781 13.019531 L 87.742188 13.019531 "/>
<path style=" stroke:none;fill-rule:nonzero;fill:rgb(14.248657%,29.133606%,58.224487%);fill-opacity:1;" d="M 93.863281 7.867188 L 94.324219 7.867188 C 95.179688 7.867188 95.609375 7.488281 95.609375 6.730469 C 95.609375 6.105469 95.1875 5.792969 94.347656 5.792969 L 93.863281 5.792969 Z M 93.863281 9.714844 L 93.863281 13.019531 L 91.410156 13.019531 L 91.410156 3.9375 L 94.382812 3.9375 C 96.851562 3.9375 98.085938 4.832031 98.085938 6.621094 C 98.085938 7.671875 97.574219 8.484375 96.546875 9.0625 L 99.191406 13.019531 L 96.410156 13.019531 L 94.484375 9.714844 L 93.863281 9.714844 "/>
<path style=" stroke:none;fill-rule:nonzero;fill:rgb(14.248657%,29.133606%,58.224487%);fill-opacity:1;" d="M 100.019531 13.019531 L 100.019531 3.9375 L 102.484375 3.9375 L 102.484375 13.019531 L 100.019531 13.019531 "/>
<path style=" stroke:none;fill-rule:nonzero;fill:rgb(14.248657%,29.133606%,58.224487%);fill-opacity:1;" d="M 113.09375 13.019531 L 109.875 13.019531 L 106.558594 6.621094 L 106.503906 6.621094 C 106.582031 7.625 106.621094 8.394531 106.621094 8.925781 L 106.621094 13.019531 L 104.445312 13.019531 L 104.445312 3.9375 L 107.652344 3.9375 L 110.957031 10.246094 L 110.992188 10.246094 C 110.9375 9.332031 110.90625 8.597656 110.90625 8.042969 L 110.90625 3.9375 L 113.09375 3.9375 L 113.09375 13.019531 "/>
<path style=" stroke:none;fill-rule:nonzero;fill:rgb(14.248657%,29.133606%,58.224487%);fill-opacity:1;" d="M 122.976562 9.304688 L 122.585938 7.8125 C 122.492188 7.480469 122.382812 7.054688 122.253906 6.527344 C 122.121094 6 122.035156 5.625 121.996094 5.394531 C 121.957031 5.609375 121.886719 5.957031 121.773438 6.441406 C 121.664062 6.925781 121.421875 7.878906 121.046875 9.304688 Z M 123.933594 13.019531 L 123.484375 11.316406 L 120.535156 11.316406 L 120.074219 13.019531 L 117.378906 13.019531 L 120.34375 3.898438 L 123.617188 3.898438 L 126.617188 13.019531 L 123.933594 13.019531 "/>
<path style=" stroke:none;fill-rule:nonzero;fill:rgb(14.248657%,29.133606%,58.224487%);fill-opacity:1;" d="M 127.597656 13.019531 L 127.597656 3.9375 L 130.0625 3.9375 L 130.0625 13.019531 L 127.597656 13.019531 "/>
<path style=" stroke:none;fill-rule:nonzero;fill:rgb(14.248657%,29.133606%,58.224487%);fill-opacity:1;" d="M 134.480469 7.867188 L 134.941406 7.867188 C 135.796875 7.867188 136.226562 7.488281 136.226562 6.730469 C 136.226562 6.105469 135.804688 5.792969 134.964844 5.792969 L 134.480469 5.792969 Z M 134.480469 9.714844 L 134.480469 13.019531 L 132.027344 13.019531 L 132.027344 3.9375 L 135.003906 3.9375 C 137.472656 3.9375 138.703125 4.832031 138.703125 6.621094 C 138.703125 7.671875 138.191406 8.484375 137.164062 9.0625 L 139.8125 13.019531 L 137.027344 13.019531 L 135.101562 9.714844 L 134.480469 9.714844 "/>
<path style=" stroke:none;fill-rule:nonzero;fill:rgb(14.248657%,29.133606%,58.224487%);fill-opacity:1;" d="M 140.636719 13.019531 L 140.636719 3.9375 L 143.089844 3.9375 L 143.089844 11.035156 L 146.589844 11.035156 L 146.589844 13.019531 L 140.636719 13.019531 "/>
<path style=" stroke:none;fill-rule:nonzero;fill:rgb(14.248657%,29.133606%,58.224487%);fill-opacity:1;" d="M 148.039062 13.019531 L 148.039062 3.9375 L 150.507812 3.9375 L 150.507812 13.019531 L 148.039062 13.019531 "/>
<path style=" stroke:none;fill-rule:nonzero;fill:rgb(14.248657%,29.133606%,58.224487%);fill-opacity:1;" d="M 161.117188 13.019531 L 157.898438 13.019531 L 154.582031 6.621094 L 154.527344 6.621094 C 154.605469 7.625 154.644531 8.394531 154.644531 8.925781 L 154.644531 13.019531 L 152.46875 13.019531 L 152.46875 3.9375 L 155.675781 3.9375 L 158.980469 10.246094 L 159.015625 10.246094 C 158.960938 9.332031 158.929688 8.597656 158.929688 8.042969 L 158.929688 3.9375 L 161.117188 3.9375 L 161.117188 13.019531 "/>
<path style=" stroke:none;fill-rule:nonzero;fill:rgb(14.248657%,29.133606%,58.224487%);fill-opacity:1;" d="M 168.472656 13.019531 L 163.078125 13.019531 L 163.078125 3.9375 L 168.472656 3.9375 L 168.472656 5.90625 L 165.53125 5.90625 L 165.53125 7.335938 L 168.253906 7.335938 L 168.253906 9.304688 L 165.53125 9.304688 L 165.53125 11.019531 L 168.472656 11.019531 L 168.472656 13.019531 "/>
<path style=" stroke:none;fill-rule:nonzero;fill:rgb(14.248657%,29.133606%,58.224487%);fill-opacity:1;" d="M 176 10.261719 C 176 10.824219 175.855469 11.324219 175.570312 11.761719 C 175.285156 12.199219 174.875 12.535156 174.335938 12.777344 C 173.796875 13.019531 173.164062 13.140625 172.441406 13.140625 C 171.835938 13.140625 171.328125 13.101562 170.917969 13.015625 C 170.507812 12.929688 170.082031 12.78125 169.640625 12.570312 L 169.640625 10.382812 C 170.105469 10.625 170.59375 10.8125 171.097656 10.945312 C 171.605469 11.082031 172.066406 11.148438 172.488281 11.148438 C 172.855469 11.148438 173.121094 11.085938 173.292969 10.960938 C 173.460938 10.832031 173.546875 10.671875 173.546875 10.472656 C 173.546875 10.347656 173.511719 10.238281 173.445312 10.144531 C 173.375 10.050781 173.265625 9.957031 173.113281 9.863281 C 172.964844 9.765625 172.5625 9.574219 171.90625 9.277344 C 171.3125 9.007812 170.871094 8.75 170.574219 8.496094 C 170.277344 8.242188 170.058594 7.953125 169.914062 7.625 C 169.773438 7.300781 169.699219 6.914062 169.699219 6.464844 C 169.699219 5.628906 170.007812 4.976562 170.613281 4.507812 C 171.222656 4.039062 172.058594 3.804688 173.125 3.804688 C 174.0625 3.804688 175.023438 4.023438 176 4.457031 L 175.246094 6.351562 C 174.398438 5.964844 173.664062 5.769531 173.050781 5.769531 C 172.730469 5.769531 172.5 5.824219 172.355469 5.9375 C 172.210938 6.046875 172.136719 6.1875 172.136719 6.351562 C 172.136719 6.53125 172.226562 6.691406 172.414062 6.832031 C 172.597656 6.972656 173.097656 7.230469 173.914062 7.601562 C 174.695312 7.953125 175.238281 8.332031 175.542969 8.734375 C 175.847656 9.140625 176 9.648438 176 10.261719 "/>
</g>
</svg>

<svg xmlns="http://www.w3.org/2000/svg" width="176pt" height="34.72" viewBox="0 0 176 26.04"><defs><clipPath id="a"><path d="M0 0h37v26.04H0Zm0 0"/></clipPath></defs><g clip-path="url(#a)"><path d="M20.191 24.965c-1.18.668-2.437.969-3.742 1.047-4.152.25-7.703-1.254-10.867-3.805-2.227-1.797-3.984-3.965-4.988-6.676-.664-1.793-.89-3.625-.051-5.418 1.387-2.96 5.836-5.754 10.25-2.386 1.07.816 2.004 1.812 2.973 2.699.18-.516-.465-1.973-1.352-2.926-.816-.871-1.851-1.34-3.012-1.586q.004-.116.008-.226c.371-.063.738-.145 1.113-.184.329-.031.618-.012.934-.277.238-.196.738-.172 1.098-.11 1.414.238 2.601.977 3.734 1.809.219.164.434.332.727.554.086-.488.125-.933.238-1.359.808-3.059 2.598-5.203 5.758-5.973 2.18-.527 5.996.309 7.367 2.735.777 1.379 1.082 2.875 1.219 4.422.136 1.57.109 3.172.414 4.707.527 2.664 2.14 4.668 4.336 6.218.168.118.336.223.562.372-.762.695-1.629.937-2.594.847-1.382-.137-2.558-.773-3.629-1.613-2.488-1.953-4.183-4.438-5.066-7.492-.219-.762-.625-1.492-1.062-2.164-.73-1.125-1.711-1.457-3.008-1.157-2 .465-3.055 2.243-2.45 4.2.626 2.02 1.915 3.578 3.547 4.87 2.727 2.16 5.875 3.446 9.184 4.403.102.031.203.07.41.145-.586.214-1.086.39-1.578.578-.516.191-1.035.383-1.543.593-1.851.762-3.695 1.543-5.55 2.286-.274.105-.669.125-.93.007-3.86-1.714-6.446-4.652-8.02-8.523-.437-1.066-.988-2.023-2.047-2.562-1.105-.567-2.219-.543-3.219.226-.953.738-1.19 1.785-1 2.922.235 1.379 1 2.48 1.97 3.437 2.71 2.692 5.917 4.5 9.667 5.305.067.016.13.035.2.055" style="stroke:none;fill-rule:nonzero;fill:#a59763;fill-opacity:1"/></g><path d="M44.648 13.02 42.79 6.477h-.055q.13 1.67.13 2.597v3.946H40.69V3.938h3.266l1.895 6.445h.05l1.856-6.445h3.273v9.082h-2.254V9.035c0-.207.004-.433.008-.687.008-.254.035-.871.086-1.86h-.055l-1.832 6.532zM57.605 9.305l-.39-1.492a39 39 0 0 1-.332-1.286 17 17 0 0 1-.258-1.132q-.059.32-.223 1.046-.163.726-.73 2.864Zm.958 3.715-.45-1.704h-2.949l-.46 1.704h-2.696l2.965-9.122h3.273l3 9.122zM70.871 13.02h-3.215L64.34 6.62h-.059c.078 1.004.121 1.774.121 2.305v4.094h-2.175V3.938h3.203l3.304 6.308h.04a36 36 0 0 1-.087-2.203V3.938h2.184zM77.996 8.371q0-1.249-.492-1.851-.492-.6-1.5-.602h-.715v5.086h.547q1.12.001 1.64-.649.521-.646.52-1.984m2.547-.086c0 1.516-.414 2.684-1.25 3.504q-1.253 1.23-3.52 1.23h-2.937V3.939h3.144q2.185-.002 3.375 1.117 1.189 1.12 1.188 3.23M86.79 9.305l-.395-1.492c-.09-.333-.2-.758-.332-1.286a24 24 0 0 1-.258-1.132q-.054.32-.22 1.046c-.108.485-.355 1.438-.73 2.864Zm.952 3.715-.445-1.704h-2.95l-.46 1.704H81.19l2.961-9.122h3.274l3 9.122zM93.863 7.867h.461q1.285 0 1.285-1.137 0-.937-1.261-.937h-.485Zm0 1.848v3.305H91.41V3.938h2.973q3.703 0 3.703 2.683.001 1.574-1.54 2.441l2.645 3.958h-2.78l-1.927-3.305zM100.02 13.02V3.938h2.464v9.082zM113.094 13.02h-3.219l-3.316-6.399h-.055q.117 1.507.117 2.305v4.094h-2.176V3.938h3.207l3.305 6.308h.035a39 39 0 0 1-.086-2.203V3.938h2.188zM122.977 9.305l-.391-1.492a39 39 0 0 1-.332-1.286 17 17 0 0 1-.258-1.132c-.039.214-.11.562-.223 1.046q-.163.726-.726 2.864Zm.957 3.715-.45-1.704h-2.949l-.46 1.704h-2.696l2.965-9.122h3.273l3 9.122zM127.598 13.02V3.938h2.465v9.082zM134.48 7.867h.461q1.285 0 1.286-1.137-.001-.937-1.262-.937h-.485Zm0 1.848v3.305h-2.453V3.938h2.977q3.702 0 3.7 2.683 0 1.574-1.54 2.441l2.649 3.958h-2.786l-1.925-3.305zM140.637 13.02V3.938h2.453v7.097h3.5v1.985zM148.04 13.02V3.938h2.468v9.082zM161.117 13.02h-3.219l-3.316-6.399h-.055q.117 1.507.118 2.305v4.094h-2.176V3.938h3.207l3.304 6.308h.036a39 39 0 0 1-.086-2.203V3.938h2.187zM168.473 13.02h-5.395V3.938h5.395v1.968h-2.942v1.43h2.723v1.969h-2.723v1.715h2.942zM176 10.262q-.001.843-.43 1.5-.426.654-1.234 1.015-.81.364-1.895.364-.908.001-1.523-.125a5.7 5.7 0 0 1-1.277-.446v-2.187c.464.242.953.43 1.457.562q.759.204 1.39.203.549 0 .805-.187a.59.59 0 0 0 .152-.816 1.2 1.2 0 0 0-.332-.282c-.148-.097-.55-.289-1.207-.586-.594-.27-1.035-.527-1.332-.78a2.4 2.4 0 0 1-.66-.872c-.14-.324-.215-.71-.215-1.16 0-.836.309-1.488.914-1.957q.914-.703 2.512-.703 1.408 0 2.875.652l-.754 1.895q-1.274-.581-2.195-.582-.48-.002-.696.168a.5.5 0 0 0-.218.414q-.002.27.277.48.276.211 1.5.77 1.172.528 1.629 1.132.457.609.457 1.528" style="stroke:none;fill-rule:nonzero;fill:#244a94;fill-opacity:1"/></svg>
